X:288
T:Rochdale Coconut Dance
R:polka 32
S:Trad
O:England
M:4/4
L:1/8
K:Em
|:EFGF E2B2|EFGF E2B2|c2 Ac B2G2|1 AGFE D4:|2 AG F2G4|
|G2 BB G2B2|AGFG ABc2|G2BB G2B2|AGFE D4|
|G2BB G2B2|AGFG ABc2|BdcB AcBA|G2F2G2F2|

